resources/svg/spam-2-line.svg

<svg fill="currentColor" viewBox="0 0 24 24" xmlns="http://www.w3.org/2000/svg"><path d="M15.935 2.50098L21.5 8.06595V15.936L15.935 21.501H8.06497L2.5 15.936V8.06595L8.06497 2.50098H15.935ZM15.1066 4.50098H8.8934L4.5 8.89437V15.1076L8.8934 19.501H15.1066L19.5 15.1076V8.89437L15.1066 4.50098ZM10.9993 15.0002H12.9993V17.0002H10.9993V15.0002ZM10.9993 7.00024H12.9993V13.0002H10.9993V7.00024Z"/></svg>

<svg xmlns="http://www.w3.org/2000/svg" viewBox="0 0 24 24" fill="currentColor">
    <g>
        <path fill="none" d="M0 0h24v24H0z"/>
        <path fill-rule="nonzero" d="M15.936 2.5L21.5 8.067v7.87L15.936 21.5h-7.87L2.5 15.936v-7.87L8.066 2.5h7.87zm-.829 2H8.894L4.501 8.895v6.213l4.393 4.394h6.213l4.394-4.394V8.894l-4.394-4.393zM11 15h2v2h-2v-2zm0-8h2v6h-2V7z"/>
    </g>
</svg>
